X:1
T:Dupont Circle, 11.11.11 D
T:Dupont Circle, 11.11.11 D
T:Wilson Lee Remsberg, 1885
T:Public Domain Courtesy of the Cyber Hymnal™
C:Wilson Lee Remsberg, 1885
Z:Public Domain
Z:Courtesy of the Cyber Hymnal™
%%score ( 1 2 ) ( 3 4 )
L:1/8
Q:1/4=110
M:4/4
K:F
V:1 treble 
V:2 treble 
V:3 bass 
V:4 bass 
V:1
 [Fc]3 [Fc] [Fc]2 [Fc]2 | [Fd]4 [Fc]4 | [FA]3 [CG] [CF]2 [FA]2 | [EG]6 z2 | %4
 [Fc]3 [Fc] [Fc]2 [Fc]2 | [Fd]4 [Fc]4 | F3 [FG] [FA]2 [EG]2 | [CF]6 z2 | %8
[K:C] [Ec]3 [Ec] [Ec]2 (3([Ec][DB][Ec]) | [Fd]4 [FG]4 | [Ge]3 [Fd] [Ec]2 [FA]2 | [EG]6 z2 | %12
 [Ec]3 [Ec] [Ec]2 (3([Ec][DB][Ec]) | [Fd]4 [Ec]4 | [Ge]3 [Ec] ([Ec][DB]) ([Ge]>[Fd]) | %15
 !fermata!c6 !fermata!z2 |[K:F] [Fc]3 [Fc] [Fc]2 [Fc]2 | [Fd]4 [Fc]4 | [FA]3 [CG] [CF]2 [FA]2 | %19
 [EG]6 z2 | [Fc]3 [Fc] [Fc]2 [Fc]2 | [Fd]4 [Fc]4 | F3 [FG] [FA]2 [EG]2 | [CF]8 |] %24
V:2
 x8 | x8 | x8 | x8 | x8 | x8 | F3 x5 | x8 |[K:C] x8 | x8 | x8 | x8 | x8 | x8 | x8 | (E3 F G2) x2 | %16
[K:F] x8 | x8 | x8 | x8 | x8 | x8 | F3 x5 | x8 |] %24
V:3
 [F,A,]3 [F,A,] [F,A,]2 [F,A,]2 | [F,B,]4 [F,A,]4 | [F,C]3 [F,B,] [F,A,]2 [F,C]2 | [C,C]6 z2 | %4
 [F,A,]3 [F,A,] [F,A,]2 [F,A,]2 | [F,B,]4 [F,A,]4 | [A,,C]3 [B,,D] [C,C]2 [C,B,]2 | [F,,A,]6 z2 | %8
[K:C] [C,G,]3 [C,G,] [C,G,]2 [C,G,]2 | [G,,B,]4 [G,,B,]4 | [C,C]3 [C,G,] [C,G,]2 (A,B,) | %11
 [C,C]6 z2 | [C,G,]3 [C,G,] [C,G,]2 [C,G,]2 | [G,,B,]4 [C,C]4 | [C,C]3 [E,G,] G,2 [G,,G,]2 | %15
 (G,3 A, _B,2) z2 |[K:F] [F,A,]3 [F,A,] [F,A,]2 [F,A,]2 | [F,B,]4 [F,A,]4 | %18
 [F,C]3 [F,B,] [F,A,]2 [F,C]2 | [C,C]6 z2 | [F,A,]3 [F,A,] [F,A,]2 [F,A,]2 | [F,B,]4 [F,A,]4 | %22
 [A,,C]3 [B,,D] [C,C]2 [C,B,]2 | [F,,A,]8 |] %24
V:4
 x8 | x8 | x8 | x8 | x8 | x8 | x8 | x8 |[K:C] x8 | x8 | x6 C,2 | x8 | x8 | x8 | x4 G,2 x2 | %15
 C,6 x2 |[K:F] x8 | x8 | x8 | x8 | x8 | x8 | x8 | x8 |] %24

